X:19
T:Rogha An Ghabha
R:reel
M:4/4
L:1/8
K:Dmaj
A2 GE FDDF | G2 E=C G,CEG | AFGE FDDC | DEFG Add=c |
A2 GE FDDF | G2 E=C G,CEG | DEFG Adde | fage fd d2 :|
fddc dfaf | ecAG FD D2 | fddc dfaf | efga fdde |
fddc dfaf | ecAG FDDE | DEFG Adde | fage fd d2 :|

